gtk/src/default/unity/maximize_dash.svg

<svg width="24" height="24" version="1.1" viewBox="0 0 6.35 6.35" xmlns="http://www.w3.org/2000/svg">
 <g transform="translate(0 -290.91)">
  <circle cx="3.175" cy="294.09" r="2.6458" fill="none" stroke-width=".66123"/>
  <g transform="matrix(.56569 -.70711 .56569 .70711 -164.84 88.637)">
   <path transform="matrix(.23386 .23386 -.18709 .18709 2.6664 288.73)" d="m8 8v1 6 1h1 6 1v-1-7h-8zm1 1h6v6h-6v-6z" fill="#fff" stroke-width=".66668"/>
  </g>
 </g>
</svg>

<?xml version="1.0" encoding="UTF-8" standalone="no"?>
<svg
   xmlns:dc="http://purl.org/dc/elements/1.1/"
   xmlns:cc="http://creativecommons.org/ns#"
   xmlns:rdf="http://www.w3.org/1999/02/22-rdf-syntax-ns#"
   xmlns:svg="http://www.w3.org/2000/svg"
   xmlns="http://www.w3.org/2000/svg"
   xmlns:sodipodi="http://sodipodi.sourceforge.net/DTD/sodipodi-0.dtd"
   xmlns:inkscape="http://www.inkscape.org/namespaces/inkscape"
   width="24"
   height="24"
   version="1.1"
   viewBox="0 0 6.35 6.3499636"
   id="svg5275"
   sodipodi:docname="maximize_dash.svg"
   inkscape:version="1.0.2 (e86c870879, 2021-01-15)">
  <metadata
     id="metadata5281">
    <rdf:RDF>
      <cc:Work
         rdf:about="">
        <dc:format>image/svg+xml</dc:format>
        <dc:type
           rdf:resource="http://purl.org/dc/dcmitype/StillImage" />
        <dc:title></dc:title>
      </cc:Work>
    </rdf:RDF>
  </metadata>
  <defs
     id="defs5279" />
  <sodipodi:namedview
     pagecolor="#ffffff"
     bordercolor="#666666"
     borderopacity="1"
     objecttolerance="10"
     gridtolerance="10"
     guidetolerance="10"
     inkscape:pageopacity="0"
     inkscape:pageshadow="2"
     inkscape:window-width="1301"
     inkscape:window-height="744"
     id="namedview5277"
     showgrid="true"
     inkscape:zoom="21.454545"
     inkscape:cx="14.9944"
     inkscape:cy="9.8855007"
     inkscape:window-x="65"
     inkscape:window-y="24"
     inkscape:window-maximized="1"
     inkscape:current-layer="g5273"
     inkscape:document-rotation="0">
    <inkscape:grid
       type="xygrid"
       id="grid5826" />
  </sodipodi:namedview>
  <g
     transform="translate(0,-290.91498)"
     id="g5273">
    <circle
       cx="3.175"
       cy="294.09"
       r="2.6458001"
       id="circle5255"
       style="fill:none;stroke-width:0.66123003;fill-opacity:1" />
    <g
       id="g115">
      <g
         transform="matrix(0.56569,-0.70711,0.56569,0.70711,-164.83969,88.637)"
         id="g5259">
        <path
           id="rect5257"
           style="fill:#ffffff;fill-opacity:1;stroke-width:0.666675"
           d="M 8 8 L 8 9 L 8 15 L 8 16 L 9 16 L 15 16 L 16 16 L 16 15 L 16 8 L 8 8 z M 9 9 L 15 9 L 15 15 L 9 15 L 9 9 z "
           transform="matrix(0.23385895,0.23385895,-0.18708782,0.18708782,2.6664325,288.72937)" />
      </g>
      <g
         transform="matrix(-0.70711,-0.56569253,0.70711,-0.56569253,-202.54761,462.10239)"
         id="g5263" />
      <g
         transform="matrix(-0.70711566,-0.56569253,0.70711566,-0.56569253,-204.40134,462.10239)"
         id="g5267" />
      <g
         transform="matrix(0.56569,-0.70711,0.56569,0.70711,-164.83669,86.51527)"
         id="g5271" />
    </g>
  </g>
</svg>
